X: 4233
T: The SHORT BLACK APRON
%R: jig
B: James Kerr "Merry Melodies" v.4 p.26 #233
Z: 2016 John Chambers <jc:trillian.mit.edu>
M: 6/8
L: 1/8
K: A
|:\
A3 cAG | Add cAG | Add cde | gec (d2c) |\
A3 cAG | Add cAG | AGA fga | gec ded :|
|:\
cAA fAA | gAA fAA | cAA fAA | gec ded |\
cAA fAA | gAA fAA | eaa aba | gec (d2c) :|

%%sep 1 1 500
%%sep 1 1 500

